X:1
T:Gil's Schottische
C:by Gil Kiesecker
L:1/8
M:4/4
I:linebreak $
K:D
V:1 treble
V:1
"D" (DF)Ad (fe)(dB) |"G" G2 GA B2 BB |"A" A2 cc c2 cB |"D" A2 de (ef) f2 |$
"D"  (DF)Ad fedB | "G" G GA B2 BB |"A" A2 cc c2 cB |"D" A2 [Fd]2 [Fd]2 (fg) ||$
"D"  a2 af (gf) (3(efg) |"G" g2 BBB2cB | "A" (Ac)ef gfga |"D" b2 a^g a2 f=g |$
"D"  a2 af (gf)eg |"G" g2 BB B2 cB |"A" (Ac)(ef) geBc |"D" ([Dd]2 d2) [Dd]4 ||
